main/svg/diagonalChecksBottomLeftTopRight.svg

<svg xmlns="http://www.w3.org/2000/svg" width="32" height="32"><path d="m29.996 9-7 7L16 9l6.996-6.996 7 7M16 22.996l-7 7-6.996-7 7-6.996L16 22.996m-16-12V7l2.004 2.004L0 10.996M32 25v-4l-2.004 2L32 25M10.996 0H7l2.004 2.004L10.996 0M25 32h-4l2-2.004L25 32m7-32v2.004L29.996 0ZM0 32v-2.004L2.004 32Zm0 0" style="stroke:none;fill-rule:nonzero;fill:#000;fill-opacity:1"/></svg>

<svg xmlns="http://www.w3.org/2000/svg" width="32" height="32"><path d="m30 9-7 7-7-7 7-7 7 7M16 23l-7 7-7-7 7-7 7 7M0 11V7l2 2-2 2m32 14v-4l-2 2 2 2M11 0H7l2 2 2-2m14 32h-4l2-2 2 2m7-32v2l-2-2ZM0 32v-2l2 2Zm0 0" style="stroke:none;fill-rule:nonzero;fill:#000;fill-opacity:1"/></svg>
